X:485
T:Some Say the Devil's Dead
M:4/4
K:G
D2 DE GABA | GEED GE E2 | D2 DE GABc | dedB A2 G2 :|
B2 BA Bc d2 | e2 ed ef g2 | B2 BA BcdB | GABG A2 G2 :|
